dist/img/icons/icon-info.svg

<svg width="15" height="15" viewBox="0 0 15 15" fill="none" xmlns="http://www.w3.org/2000/svg">
<path d="M7.5002 14.2557C11.2211 14.2557 14.2444 11.2325 14.2444 7.51152C14.2444 3.79059 11.2211 0.767334 7.5002 0.767334C3.77927 0.767334 0.744385 3.79059 0.744385 7.51152C0.744385 11.2325 3.77927 14.2557 7.5002 14.2557ZM7.5002 1.69757C10.6979 1.69757 13.3025 4.30222 13.3025 7.49989C13.3025 10.6976 10.6979 13.3022 7.5002 13.3022C4.30252 13.3022 1.69787 10.6976 1.69787 7.49989C1.69787 4.30222 4.30252 1.69757 7.5002 1.69757Z" fill="black"/>
<path d="M6.37225 10.4767C6.10481 10.4767 5.89551 10.686 5.89551 10.9534C5.89551 11.2209 6.10481 11.4302 6.37225 11.4302H9.50016C9.7676 11.4302 9.97691 11.2209 9.97691 10.9534C9.97691 10.686 9.7676 10.4767 9.50016 10.4767H8.40714V6.27899C8.40714 6.01155 8.19783 5.80225 7.93039 5.80225H6.37225C6.10481 5.80225 5.89551 6.01155 5.89551 6.27899C5.89551 6.54643 6.10481 6.75573 6.37225 6.75573H7.46528V10.4767H6.37225Z" fill="black"/>
<path d="M7.29088 5.01144C7.71473 5.01144 8.05832 4.66785 8.05832 4.244C8.05832 3.82016 7.71473 3.47656 7.29088 3.47656C6.86703 3.47656 6.52344 3.82016 6.52344 4.244C6.52344 4.66785 6.86703 5.01144 7.29088 5.01144Z" fill="black"/>
</svg>

<svg width="15" height="15" viewBox="0 0 15 15" fill="none" xmlns="http://www.w3.org/2000/svg"><path d="M7.5 14.256a6.749 6.749 0 0 0 6.744-6.744A6.75 6.75 0 0 0 7.5.767C3.78.767.744 3.791.744 7.512c0 3.72 3.035 6.744 6.756 6.744zm0-12.558A5.811 5.811 0 0 1 13.303 7.5 5.811 5.811 0 0 1 7.5 13.302 5.811 5.811 0 0 1 1.698 7.5 5.811 5.811 0 0 1 7.5 1.698z" fill="#000"/><path d="M6.372 10.477a.472.472 0 0 0-.476.476c0 .268.209.477.476.477H9.5c.268 0 .477-.21.477-.477a.472.472 0 0 0-.477-.476H8.407V6.279a.472.472 0 0 0-.477-.477H6.372a.472.472 0 0 0-.476.477c0 .267.209.477.476.477h1.093v3.72H6.372zM7.29 5.011a.767.767 0 1 0 0-1.534.767.767 0 0 0 0 1.534z" fill="#000"/></svg>
